public/assets/icons/icon_gift_white.svg

<svg width="256" height="256" viewBox="0 0 256 256" fill="none" xmlns="http://www.w3.org/2000/svg">
<path d="M216 68H188.4C192.275 60.3565 193.297 51.5812 191.281 43.2518C189.265 34.9225 184.344 27.5855 177.402 22.56C170.46 17.5346 161.954 15.1503 153.411 15.8358C144.869 16.5214 136.851 20.2318 130.8 26.3C129.789 27.3321 128.854 28.4349 128 29.6C127.146 28.4349 126.211 27.3321 125.2 26.3C119.149 20.2318 111.131 16.5214 102.589 15.8358C94.0463 15.1503 85.5396 17.5346 78.5979 22.56C71.6563 27.5855 66.735 34.9225 64.7191 43.2518C62.7031 51.5812 63.7246 60.3565 67.6 68H40C34.7038 68.0263 29.632 70.1418 25.8869 73.8869C22.1419 77.6319 20.0263 82.7038 20 88V120C20.0177 124.606 21.6166 129.065 24.5292 132.633C27.4417 136.201 31.4911 138.661 36 139.6V200C36.0263 205.296 38.1419 210.368 41.8869 214.113C45.632 217.858 50.7038 219.974 56 220H200C205.296 219.974 210.368 217.858 214.113 214.113C217.858 210.368 219.974 205.296 220 200V139.6C224.509 138.661 228.558 136.201 231.471 132.633C234.383 129.065 235.982 124.606 236 120V88C235.974 82.7038 233.858 77.6319 230.113 73.8869C226.368 70.1418 221.296 68.0263 216 68V68ZM212 116H140V92H212V116ZM147.8 43.2C148.917 42.0866 150.243 41.2044 151.702 40.6038C153.16 40.0032 154.723 39.6961 156.3 39.7C158.678 39.6941 161.003 40.3948 162.982 41.7129C164.961 43.0311 166.504 44.9074 167.414 47.1038C168.325 49.3001 168.563 51.7175 168.097 54.0492C167.632 56.3808 166.484 58.5216 164.8 60.2C161.5 63.5 151.3 66 140.7 67.2C142.1 55.4 145 46 147.8 43.2ZM91.2 43.2C93.4769 40.9886 96.526 39.7516 99.7 39.7516C102.874 39.7516 105.923 40.9886 108.2 43.2C111.5 46.5 114 56.7 115.2 67.3C103.4 65.9 94 63 91.2 60.2C88.9886 57.9231 87.7516 54.874 87.7516 51.7C87.7516 48.5259 88.9886 45.4769 91.2 43.2V43.2ZM44 92H116V116H44V92ZM60 140H116V196H60V140ZM140 196V140H196V196H140Z" fill="white"/>
</svg>

<svg width="256" height="256" fill="none" xmlns="http://www.w3.org/2000/svg"><path d="M216 68h-27.6a36.002 36.002 0 0 0-34.989-52.164A36 36 0 0 0 130.8 26.3a30.381 30.381 0 0 0-2.8 3.3 30.381 30.381 0 0 0-2.8-3.3A36 36 0 0 0 67.6 68H40a20.1 20.1 0 0 0-20 20v32a20.098 20.098 0 0 0 16 19.6V200a20.1 20.1 0 0 0 20 20h144a20.1 20.1 0 0 0 20-20v-60.4a20.099 20.099 0 0 0 16-19.6V88a20.1 20.1 0 0 0-20-20Zm-4 48h-72V92h72v24Zm-64.2-72.8a11.994 11.994 0 0 1 8.5-3.5 11.999 11.999 0 0 1 8.5 20.5c-3.3 3.3-13.5 5.8-24.1 7 1.4-11.8 4.3-21.2 7.1-24Zm-56.6 0a12.2 12.2 0 0 1 17 0c3.3 3.3 5.8 13.5 7 24.1-11.8-1.4-21.2-4.3-24-7.1a12.2 12.2 0 0 1 0-17ZM44 92h72v24H44V92Zm16 48h56v56H60v-56Zm80 56v-56h56v56h-56Z" fill="#fff"/></svg>
